Numix-Light-GalliumOS/24/status/radiotray_off.svg

<?xml version="1.0" encoding="UTF-8" standalone="no"?>
<svg
   xmlns:dc="http://purl.org/dc/elements/1.1/"
   xmlns:cc="http://creativecommons.org/ns#"
   xmlns:rdf="http://www.w3.org/1999/02/22-rdf-syntax-ns#"
   xmlns:svg="http://www.w3.org/2000/svg"
   xmlns="http://www.w3.org/2000/svg"
   xmlns:sodipodi="http://sodipodi.sourceforge.net/DTD/sodipodi-0.dtd"
   xmlns:inkscape="http://www.inkscape.org/namespaces/inkscape"
   width="24"
   viewBox="0 0 6.7733335 6.7733335"
   height="24"
   id="svg2"
   version="1.1"
   inkscape:version="0.91 r"
   sodipodi:docname="radiotray_off.svg">
  <metadata
     id="metadata12">
    <rdf:RDF>
      <cc:Work
         rdf:about="">
        <dc:format>image/svg+xml</dc:format>
        <dc:type
           rdf:resource="http://purl.org/dc/dcmitype/StillImage" />
        <dc:title />
      </cc:Work>
    </rdf:RDF>
  </metadata>
  <sodipodi:namedview
     pagecolor="#ffffff"
     bordercolor="#666666"
     borderopacity="1"
     objecttolerance="10"
     gridtolerance="10"
     guidetolerance="10"
     inkscape:pageopacity="0"
     inkscape:pageshadow="2"
     inkscape:window-width="1366"
     inkscape:window-height="747"
     id="namedview10"
     showgrid="true"
     inkscape:zoom="5.2600001"
     inkscape:cx="-47.193785"
     inkscape:cy="7.2075125"
     inkscape:window-x="0"
     inkscape:window-y="21"
     inkscape:window-maximized="1"
     inkscape:current-layer="svg2">
    <inkscape:grid
       type="xygrid"
       id="grid3815" />
  </sodipodi:namedview>
  <defs
     id="defs4" />
  <g
     id="g4179"
     transform="matrix(0.28222222,0,0,0.28222222,-15.203921,-3.3280207)" />
  <path
     id="path4203"
     d="M 2.4889164,1.8387061 C 1.9940114,2.3035459 1.9918728,3.062597 2.4867764,3.5272665 l 0.2352448,-0.22313 C 2.3550764,2.9598107 2.3565021,2.4058209 2.7241612,2.0589382 m 1.3248556,-0.00273 c 0.3676591,0.345519 0.3703322,0.9035997 0.00214,1.2498005 L 4.2864002,3.5277779 C 4.7813052,3.0624266 4.7793448,2.3006482 4.2849744,1.8344446 M 4.0490168,2.0562109"
     inkscape:connector-curvature="0"
     style="opacity:0.4;fill:#353535;fill-opacity:1;fill-rule:nonzero;stroke:none" />
  <path
     id="path4205"
     d="M 1.7909018,1.1323384 C 0.91027656,1.986578 0.90749747,3.3761617 1.7869018,4.2293666 L 2.2055078,3.8232018 C 1.5527682,3.1892052 1.5555474,2.173362 2.2089818,1.5386757 M 4.56409,1.5352257 C 5.2168298,2.1685319 5.2222142,3.1924812 4.56808,3.8271676 L 4.9866819,4.2333334 C 5.8666166,3.3790938 5.8621006,1.9826111 4.982691,1.128889 L 4.56409,1.5357437 m 0,-6.899e-4"
     inkscape:connector-curvature="0"
     style="opacity:0.4;fill:#353535;fill-opacity:1;fill-rule:nonzero;stroke:none" />
  <path
     style="opacity:0.4;fill:#353535;fill-opacity:1;fill-rule:nonzero;stroke:none;stroke-width:2;stroke-linecap:square;stroke-linejoin:miter;stroke-miterlimit:4;stroke-dasharray:none;stroke-dashoffset:0;stroke-opacity:1"
     d="m 3.3866667,2.54 c 0.1563511,0 0.2822222,0.1258711 0.2822222,0.2822223 l 0,2.54 c 0,0.1563511 -0.1258711,0.2822222 -0.2822222,0.2822222 -0.1563511,0 -0.2822222,-0.1258711 -0.2822222,-0.2822222 l 0,-2.54 C 3.1044445,2.6658711 3.2303156,2.54 3.3866667,2.54 Z"
     id="rect4286"
     inkscape:connector-curvature="0" />
</svg>

<svg xmlns="http://www.w3.org/2000/svg" width="24" viewBox="0 0 6.7733335 6.7733335" height="24">
 <path d="m 2.489 1.839 c -0.495 0.465 -0.497 1.224 -0.002 1.689 l 0.235 -0.223 c -0.367 -0.344 -0.366 -0.898 0.002 -1.245 m 1.325 -0.003 c 0.368 0.346 0.37 0.904 0.002 1.25 l 0.235 0.222 c 0.495 -0.465 0.493 -1.227 -0.001 -1.693 m -0.236 0.222" style="fill:#353535;opacity:0.4;fill-opacity:1;stroke:none;fill-rule:nonzero"/>
 <path d="m 1.791 1.132 c -0.881 0.854 -0.883 2.244 -0.004 3.097 l 0.419 -0.406 c -0.653 -0.634 -0.65 -1.65 0.003 -2.285 m 2.355 -0.003 c 0.653 0.633 0.658 1.657 0.004 2.292 l 0.419 0.406 c 0.88 -0.854 0.875 -2.251 -0.004 -3.104 l -0.419 0.407 m 0 -0.001" style="fill:#353535;opacity:0.4;fill-opacity:1;stroke:none;fill-rule:nonzero"/>
 <path d="m 3.387 2.54 c 0.156 0 0.282 0.126 0.282 0.282 l 0 2.54 c 0 0.156 -0.126 0.282 -0.282 0.282 -0.156 0 -0.282 -0.126 -0.282 -0.282 l 0 -2.54 c 0 -0.156 0.126 -0.282 0.282 -0.282" style="fill:#353535;opacity:0.4;fill-opacity:1;stroke:none;fill-rule:nonzero"/>
</svg>
